X:1
T:Jesu, lover of my soul
T:Jesu, lover of my soul - Leveland (Thomas Clark)
C:Thomas Clark
Z:Text: Charles Wesley
%%score [ 1 2 3 4 ]
L:1/8
M:4/4
K:G
V:1 treble nm="Soprano" snm="S."
V:2 treble nm="Alto" snm="A."
V:3 treble-8 transpose=-12 nm="Tenor" snm="T."
V:4 bass nm="Bass" snm="B."
V:1
"^Affettuoso" G2 (A3/2B/4c/4) (B>A) G2 | B2 (c3/2d/4e/4) (d>c B2) | g2 d2 B2 G2 | %3
w: Thou, O _ _ Christ, _ art|all I _ _ want, _ _|More than all in|
w: Je- su, _ _ lo- * ver|of my _ _ soul, _ _|Let me to thy|
w: O- ther _ _ re- * fuge|have I _ _ none, _ _|Hangs my help- less|
 (FG)(AB) (B2 A2) | A3 G (GF)(ED) | B2 B2 (B2 A2) | d3 d (d^c)(df) | (fe)(d^c) d4 | %8
w: thee _ I _ find: _|Raise the fal- * len, _|cheer the faint, _|Heal the sick, _ and _|lead _ the _ blind:|
w: bo- * som _ fly; _|While the near- * er _|wa- ters roll, _|While the tem- * pest _|still _ is _ high:|
w: soul _ on _ thee: _|Leave, ah! leave _ me _|not a- lone, _|Still sup- port _ and _|com- * fort _ me.|
!p! (dc) B2 (cB) A2 | (dc) B2 (cB A2) | G3 F (FE)(cA) | G2 F2!f! E4 | (DG)(GB) B3 A | (GB)(Bd) d4 | %14
w: Just _ and ho- * ly|is _ thy name, _ _|I am all _ un- *|right- eous- ness:|False _ and _ full of|sin _ I _ am,|
w: Hide _ me, O _ my|Sa- * viour, hide, _ _|Till the storm _ of _|life is past:|Safe _ in- * to the|ha- * ven _ guide;|
w: All _ my trust _ on|thee _ is stay’d; _ _|All my help _ from _|thee I bring;|Co- * ver _ my de-|fence- * less _ head,|
 g3 f (fe)(ed) | (dc)(cB) (B2 A2) | B3 c d2 e2 | B2 A2 G4 |] %18
w: Thou art full _ of _|truth _ and _ grace, _|thou art full of|truth and grace.|
w: O re- ceive _ my _|soul _ at _ last, _|O re- ceive my|soul at last.|
w: With the sha- * dow _|of _ thy _ wing, _|with the sha- dow|of thy wing.|
V:2
 D2 F2 G2 G2 | D2 F2 G4 | D2 G2 G2 G2 | D2 D2 D4 | E2 ^C2 D2 (CD) | G2 G2 (G2 F2) | D3 D E2 (FA) | %7
w: Thou, O Christ, art|all I want,|More than all in|thee I find:|Raise the fal- len, _|cheer the faint, _|Heal the sick, and _|
w: Je- su, lo- ver|of my soul,|Let me to thy|bo- som fly;|While the near- er _|wa- ters roll, _|While the tem- pest _|
w: O- ther re- fuge|have I none,|Hangs my help- less|soul on thee:|Leave, ah! leave me _|not a- lone, _|Still sup- port and _|
 (AG)(FE) F4 |!p! D2 D2 D2 D2 | D2 D2 D4 | B,3 ^D E2 F2 | E2 ^D2!f! E4 | (B,D) D2 G,3 B, | %13
w: lead _ the _ blind:|Just and ho- ly|is thy name,|I am all un-|right- eous- ness:|False _ and full of|
w: still _ is _ high:|Hide me, O my|Sa- viour, hide,|Till the storm of|life is past:|Safe _ in- to the|
w: com- * fort _ me.|All my trust on|thee is stay’d;|All my help from|thee I bring;|Co- * ver my de-|
 (B,D) D2 G4 | D3 D G2 G2 | D2 D2 D4 | D3 F G2 E2 | D2 C2 B,4 |] %18
w: sin _ I am,|Thou art full of|truth and grace,|thou art full of|truth and grace.|
w: ha- * ven guide;|O re- ceive my|soul at last,|O re- ceive my|soul at last.|
w: fence- * less head,|With the sha- dow|of thy wing,|with the sha- dow|of thy wing.|
V:3
 B2 (c3/2d/4e/4) (d>c) B2 | G2 (A3/2B/4c/4) (B>A G2) | B2 B2 d2 d2 | (cB)(AG) (G2 F2) | %4
w: Thou, O _ _ Christ, _ art|all I _ _ want, _ _|More than all in|thee _ I _ find: _|
w: Je- su, _ _ lo- * ver|of my _ _ soul, _ _|Let me to thy|bo- * som _ fly; _|
w: O- ther _ _ re- * fuge|have I _ _ none, _ _|Hangs my help- less|soul _ on _ thee: _|
 A3 A A2 A2 | d2 d2 d4 | A3 A G2 A2 | B2 A2 A4 |!p! (BA) G2 (AG) F2 | (BA) G2 (AG F2) | %10
w: Raise the fal- len,|cheer the faint,|Heal the sick, and|lead the blind:|Just _ and ho- * ly|is _ thy name, _ _|
w: While the near- er|wa- ters roll,|While the tem- pest|still is high:|Hide _ me, O _ my|Sa- * viour, hide, _ _|
w: Leave, ah! leave me|not a- lone,|Still sup- port and|com- fort me.|All _ my trust _ on|thee _ is stay’d; _ _|
 G3 A B2 c2 | B2 B2!f! B4 | (GB)(Bd) d3 D | (DG)(GB) B4 | d3 d c2 B2 | A2 G2 (G2 F2) | G3 A B2 G2 | %17
w: I am all un-|right- eous- ness:|False _ and _ full of|sin _ I _ am,|Thou art full of|truth and grace, _|thou art full of|
w: Till the storm of|life is past:|Safe _ in- * to the|ha- * ven _ guide;|O re- ceive my|soul at last, _|O re- ceive my|
w: All my help from|thee I bring;|Co- * ver _ my de-|fence- * less _ head,|With the sha- dow|of thy wing, _|with the sha- dow|
 G2 F2 G4 |] %18
w: truth and grace.|
w: soul at last.|
w: of thy wing.|
V:4
 G,2 G,2 G,2 G,2 | G,2 G,2 G,4 | G,2 G,2 G,2 B,2 | (A,G,)(F,G,) D,4 | ^C,2 A,,2 D,2 (E,F,) | %5
w: Thou, O Christ, art|all I want,|More than all in|thee _ I _ find:|Raise the fal- len, _|
w: Je- su, lo- ver|of my soul,|Let me to thy|bo- * som _ fly;|While the near- er _|
w: O- ther re- fuge|have I none,|Hangs my help- less|soul _ on _ thee:|Leave, ah! leave me _|
"^Notes:This setting appears in no. 28 of Thomas Clark’s The Congregational Harmonist, which was advertised on p128 of No. 48, Vol. 4, of TheMusical World, on 10 February 1837.  The setting is attributed ‘T. Clark’ in The Congregational Harmonist, where it is marked with a asterisk,used in that collection to indicate a tune which was ‘private property’ (i.e. subject to copyright, but which had previously been published)." (G,A,)(B,^C) D4 | %6
w: cheer _ the _ faint,|
w: wa- * ters _ roll,|
w: not _ a- * lone,|
 F,3 F, E,2 D,2 | G,2 A,2 D,4 |!p! D,2 D,2 D,2 D,2 | D,2 D,2 D,4 | E,3 F, G,2 A,2 | %11
w: Heal the sick, and|lead the blind:|Just and ho- ly|is thy name,|I am all un-|
w: While the tem- pest|still is high:|Hide me, O my|Sa- viour, hide,|Till the storm of|
w: Still sup- port and|com- fort me.|All my trust on|thee is stay’d;|All my help from|
 B,2 B,,2!f! E,4 | G,2 G,2 G,3 G, | G,2 G,2 G,4 | %14
w: right- eous- ness:|False and full of|sin I am,|
w: life is past:|Safe in- to the|ha- ven guide;|
w: thee I bring;|Co- ver my de-|fence- less head,|
"^The Hymn Tune Index notes that this tune (HTI tune number 16856) was published in Charles Rider’s A Selection of Hymn Tunes for the useof the Sunday School in Elm Street, Manchester (Vol. 2) [n.d., 1820 or later], attributed to Clark, but with no text, and suggests that it may befrom Clark’s Tenth Set of Psalm and Hymn Tunes [c1819] of which no copy has been traced.This edition has been based on The Congregational Harmonist. The order of parts in the source is Alto - Tenor - Air - Bass, with the Alto andTenor parts given in the treble clef an octave above sounding pitch. Only the first verse of the text is given in the source: subsequent verseshave been added editorially. The figures in bars 1 and 2 in the soprano and tenor parts given here as dotted quavers followed bydemisemiquavers are printed in the source as crotchets followed by semiquaver grace notes.Figuring of the vocal bass part in the source has been omitted in this edition to facilitate the underlaying of additional verses of the text." B,3 B, C2 G,2 | %15
w: Thou art full of|
w: O re- ceive my|
w: With the sha- dow|
 F,2 G,2 D,4 | G,3 G, G,2 C,2 | D,2 D,2 G,,4 |] %18
w: truth and grace,|thou art full of|truth and grace.|
w: soul at last,|O re- ceive my|soul at last.|
w: of thy wing,|with the sha- dow|of thy wing.|

